X: 32931
T: Preabphort Ellie MhiciliÌn
R: slip jig
M: 9/8
K: Gmajor
|:B2A G2A B2d|e2g g3 g3|d2g g3 d2g|e2d d2B A3|
B2A G2A B2d|e2g g3 g2a|bag a2f g2f|1 efg d2B c3:|2 efg d2B e3||
|:d3 g2f e2d|d2g g2f e3|d2g d2g e2d|e2g d2B A3|
d3 g2f e2d|d2g g2d b3|bag a2f g2f|1 efg d2B e3:|2 efg d2B c3||

